src/lib/packages/icons/src/assets/line/cursor-click.svg

<svg width="24" height="24" viewBox="0 0 24 24" fill="none" xmlns="http://www.w3.org/2000/svg">
<path d="M19.1 14.93L12.0301 8.80999C11.3501 8.21999 10.4101 8.07999 9.59005 8.45999C8.77005 8.83999 8.26003 9.62999 8.26003 10.54V19.87C8.26003 20.66 8.73999 21.35 9.46999 21.63C9.68999 21.71 9.92004 21.75 10.14 21.75C10.67 21.75 11.17 21.53 11.54 21.12L13.73 18.66C13.97 18.39 14.31 18.24 14.66 18.24H17.87C18.66 18.24 19.36 17.76 19.63 17.01C19.91 16.27 19.7 15.45 19.1 14.93ZM18.23 16.49C18.2 16.56 18.11 16.74 17.87 16.74H14.66C13.88 16.74 13.13 17.08 12.6 17.66L10.41 20.12C10.25 20.3 10.06 20.25 9.99001 20.22C9.92001 20.19 9.74001 20.1 9.74001 19.86V10.53C9.74001 10.06 10.09 9.86999 10.2 9.81999C10.26 9.79999 10.38 9.74999 10.54 9.74999C10.7 9.74999 10.87 9.78999 11.04 9.93999L18.11 16.06C18.29 16.22 18.25 16.41 18.22 16.48L18.23 16.49ZM11.94 6.73999C11.77 6.35999 11.93 5.91999 12.3 5.73999L14.11 4.89999C14.48 4.72999 14.93 4.88999 15.11 5.25999C15.28 5.63999 15.12 6.07999 14.75 6.25999L12.94 7.09999C12.84 7.14999 12.73 7.16999 12.62 7.16999C12.34 7.16999 12.07 7.00999 11.94 6.73999ZM9.00002 4.93999L9.18002 2.94999C9.22002 2.53999 9.60001 2.22999 9.99001 2.26999C10.4 2.30999 10.71 2.66999 10.67 3.07999L10.49 5.06999C10.46 5.45999 10.13 5.74999 9.74001 5.74999C9.72001 5.74999 9.70001 5.74999 9.67001 5.74999C9.26001 5.70999 8.95001 5.34999 8.99001 4.93999H9.00002ZM7.01003 5.86999C7.35003 6.10999 7.43003 6.57999 7.19003 6.90999C7.04003 7.11999 6.81003 7.22999 6.57003 7.22999C6.42003 7.22999 6.27004 7.18999 6.14004 7.08999L4.50002 5.93999C4.16002 5.69999 4.08003 5.22999 4.32003 4.89999C4.56003 4.55999 5.03001 4.47999 5.36001 4.71999L7.00002 5.86999H7.01003ZM6.50002 9.27999C6.67002 9.65999 6.51004 10.1 6.14004 10.28L4.33004 11.12C4.23004 11.17 4.12003 11.19 4.01003 11.19C3.73003 11.19 3.46004 11.03 3.33004 10.76C3.16004 10.38 3.32003 9.93999 3.69003 9.75999L5.50002 8.91999C5.87002 8.74999 6.32002 8.90999 6.50002 9.27999Z" fill="currentColor"/>
</svg>

<svg xmlns="http://www.w3.org/2000/svg" width="24" height="24" fill="none"><path fill="currentColor" d="m19.1 14.93-7.07-6.12a2.25 2.25 0 0 0-2.44-.35c-.82.38-1.33 1.17-1.33 2.08v9.33c0 .79.48 1.48 1.21 1.76.22.08.45.12.67.12.53 0 1.03-.22 1.4-.63l2.19-2.46c.24-.27.58-.42.93-.42h3.21c.79 0 1.49-.48 1.76-1.23.28-.74.07-1.56-.53-2.08Zm-.87 1.56a.38.38 0 0 1-.36.25h-3.21c-.78 0-1.53.34-2.06.92l-2.19 2.46c-.16.18-.35.13-.42.1a.38.38 0 0 1-.25-.36v-9.33c0-.47.35-.66.46-.71.06-.02.18-.07.34-.07.16 0 .33.04.5.19l7.07 6.12c.18.16.14.35.11.42l.01.01Zm-6.29-9.75a.762.762 0 0 1 .36-1l1.81-.84c.37-.17.82-.01 1 .36.17.38.01.82-.36 1l-1.81.84a.757.757 0 0 1-1-.36ZM9 4.94l.18-1.99c.04-.41.42-.72.81-.68.41.04.72.4.68.81l-.18 1.99c-.03.39-.36.68-.75.68h-.07a.75.75 0 0 1-.68-.81H9Zm-1.99.93c.34.24.42.71.18 1.04-.15.21-.38.32-.62.32-.15 0-.3-.04-.43-.14L4.5 5.94a.743.743 0 0 1-.18-1.04c.24-.34.71-.42 1.04-.18L7 5.87h.01ZM6.5 9.28c.17.38.01.82-.36 1l-1.81.84a.757.757 0 0 1-1-.36.762.762 0 0 1 .36-1l1.81-.84c.37-.17.82-.01 1 .36Z"/></svg>
